X: 70
T:Hornpipe,A. WI.070
M:C
Q:180
S:Wm Irwin, Folio MS, c1850. AGG's Transcription
R:Hornpipe
O:England
A:Lake District
Z:vmp.Chris Partington.2005
K:D
AG|FAd2 d2ef|gec2 c2((3ABc)|dfdf dfed|cdBc ((3ABA) ((3GFE)|!
FAd2 d2ef|gec2 c2((3ABc)|dfdf gece|d2d2d2:|!
|:fg|afdA E2ef|gecA F2ef|gfge dcdf|edcB ((3ABA) ((3GFE)|!
FAd2 d2ef|gec2 c2((3ABc)|dfdf gece|d2d2d2:|]
